X:1
T:Cathedral
T:Cathedral
T:Arranged by Sarcyl_Yeoros
T:Two Steps From Hell
C:Two Steps From Hell
%%score 1 { ( 2 3 4 ) 5 } 6
L:1/8
Q:1/4=65
M:4/4
K:F
V:1 treble nm="Piano" snm="Pno."
V:2 treble nm="Piano" snm="Pno."
V:3 treble 
V:4 treble 
V:5 bass nm="Piano" snm="Pno."
V:6 bass nm="Piano" snm="Pno."
V:1
!f! (D7 F | A7 F | D8- | D8 | A7 G | A7 F | D7 F | G8- | G8) | %9
[Q:1/4=70]!mp! ([Aa]2 [Aa]2 [Aa]2 [Aa]2) | ([Aa]2 [Aa]2 [Aa]2 [Aa]2) | ([Bb]2 [Bb]2 [Bb]2 [Bb]2) | %12
 ([Gg]2 [Gg]2 [Gg]2 [Gg]2) | ([Aa]2 [Aa]2 [Aa]2 [Aa]2) | ([Aa]2 [Aa]2 [Aa]2 [Aa][Bb]) | %15
 ([Aa]2 [Aa]2 [Aa]2 [Aa]2) | ([Gg]2 [Gg]2 [Gg]2 [Gg]2) | (([Ff]2 [Ff]2 [Ff]2 F/E/F/G/)) | %18
!f! (B6 F/E/F/G/ | B6 F/E/F/E/ |!ff! G4 F4 | F8) |[Q:1/4=75]!mf! (f/a/g/a/ gf e/f/g f2) | %23
 (f/a/g/a/ gf e/f/g) z2 | (e/a/g/a/ gf e/f/g) z2 | (e/b/a/b/ ag b/a/g z f) | %26
!mf! d'/a/g/a/ gf/e/ f g3 | f/a/g/a/ gf/e/ f g3 | (e/a/g/a/ gf e/f/g) z2 | %29
 (e/b/a/b/ ag b/a/g z f) | ([Aa]2 [Aa]2 [Aa]2 [Aa]2) | (([Aa]2 [Aa]2 [Aa]2 [Aa]2)) | %32
 ([Bb]2 [Bb]2 [Bb]2 [Bb]2) | ([Gg]2 [Gg]2 [Gg]2 [Gg]2) | ([Aa]2 [Aa]2 [Aa]2 [Aa]2) | %35
 ([Aa]2 [Aa]2 [Aa]2 [Aa][Bb]) | ([Aa]2 [Aa]2 [Aa]2 [Aa]2) | ([Gg]2 [Gg]2 [Gg]2 [Gg]2) | %38
 [Ff]2 [Ff]2 [Ff]2 [Ff]2 |!mf! f/a/g/a/ gf/e/ f g3 | f/a/g/a/ gf/e/ f g3 | (e/a/g/a/ gf e/f/g) z2 | %42
 (e/b/a/b/ ag b/a/g z f) |!mf! f/a/g/a/ gf/e/ f g3 | f/a/g/a/ gf/e/ f g3 | (e/a/g/a/ gf e/f/g) z2 | %46
 (e/b/a/b/ ag b/a/g z f) |!f! f/a/g/a/ gf/e/ f g3 | f/a/g/a/ gf/e/ f g3 | (e/a/g/a/ gf e/f/g) z2 | %50
 (e/b/a/b/ ag b/a/g z f) |!ff! f/a/g/a/ gf/e/ f g3 | f/a/g/a/ gf/e/ f g3 | (e/a/g/a/ gf e/f/g) z2 | %54
 (e/b/a/b/ ag b/a/g z f) |!mp! ([Aa]2 [Aa]2 [Aa]2 [Aa]2) | (([Aa]2 [Aa]2 [Aa]2 [Aa]2)) | %57
 ([Bb]2 [Bb]2 [Bb]2 [Bb]2) | ([Gg]2 [Gg]2 [Gg]2 [Gg]2) |!p! ([Aa]2 [Aa]2 [Aa]2 [Aa]2) | %60
 ([Aa]2 [Aa]2 [Aa]2 [Aa][Bb]) | ([Aa]2 [Aa]2 [Aa]2 [Aa]2) | ([Gg]2 [Gg]2 [Gg]2 [Gg]2) | %63
!p! [Ff]2 [Ff]2 [Ff]2 [Ff]2 |[M:2/4] z4 |[M:4/4]!p![Q:1/4=75] ([Aa]7 [Bb] |[Q:1/4=73] [Aa]8 | %67
[Q:1/4=70] [Aa]7 [Bb] |[Q:1/4=65] [Aa]8) |] %69
V:2
 z8 | z8 | z8 | z8 | z8 | z8 | z8 | z8 | z8 |!mf! [DFd]8 | [CFc]8 | [DFB]8 | [_DF]8 | [CFc]8 | %14
 [_DEA]8 | [DFd]8 | [_DF]8 | z8 |!f! [B,B]8 | [B,B]8 |!ff! G4 F4 | c8 |!f! (C7 F | G A4- A D2 | %24
 E7 C/E/ | F4 G3 A/G/) | (F4- FE/F/ EC/F/ | G A4- A GF/G/ | c6 Ac | B4 (3A2 G2 F2) | [DF]8 | %31
 [CA]8 | [DFB]8 | [_DFG]8 | F8 | E8 | D8 | [FG]8 | F8 |!f! C7 F | G A7 | E7 G/A/ | %42
 B4 c/B/G AB/A/- | A7 F | G A6 F | E7 G/A/ | B4 c/B/G AB/A/- |!ff! A8- | A7 F | [Ec]7 G/A/ | %50
 B4 c/B/G AB/A/ |!ff! A6 AG/F/ | D7 F | [Ec]7 G/A/ | B4 c/B/G AB/A/ |!mf! [DF]8 | [CF]8 | [DF]8 | %58
 [_DFG]8 |!mf! [A,CF]8 | [EGA]8 | [DFA]8 | [_DFG]8- |!mp! [DFG]8 |[M:2/4] z4 |[M:4/4]!p! (A7 B | %66
 A8 | A6 A3/2G/4F/4 | D8) |] %69
V:3
 x8 | x8 | x8 | x8 | x8 | x8 | x8 | x8 | x8 | x8 | x8 | x8 | G4 F2 _D2 | x8 | x8 | x8 | G4 F4- | %17
 F8 | x8 | x8 | x8 | x8 | x8 | x8 | x8 | x8 | x8 | x8 | x8 | x8 | x8 | F6 FG | z8 | x8 | A7 G | %35
 A7 B | A7 F | x8 | x8 | C7 F/E/ | D7 D | E7 A | F4 G3 A/G/ | [CF]4- [CF]E/F/ EC/F/ | %44
 G A4- A GF/G/ | E7 G/A/ | B4 A/B/A/G-GF/ | F8 | [EG]8 | A/G/ A6 A | B/A/ B3 c3 F | F8 | [EG]8 | %53
 [EA]8 | E8 | A8 | A z z4 z G/A/ | B6 FG | ^G2 =G2 F2 ^C2 | F6 AG | A6 G>F | D6 FG | ^G4 =G4 | F8 | %64
[M:2/4] x4 |[M:4/4] x8 | x8 | x8 | x8 |] %69
V:4
 x8 | x8 | x8 | x8 | x8 | x8 | x8 | x8 | x8 | x8 | x8 | x8 | x8 | x8 | x8 | x8 | x8 | x8 | x8 | %19
 x8 | x8 | x8 | x8 | x8 | x8 | x8 | x8 | x8 | x8 | x8 | x8 | x8 | x8 | x8 | x8 | x8 | x8 | x8 | %38
 x8 | x8 | x8 | x8 | x8 | x8 | x8 | x8 | x8 | x8 | x8 | x8 | x8 | x8 | x8 | x8 | x4 c4 | x8 | x8 | %57
 x8 | x8 | x8 | x8 | x8 | x8 | x8 |[M:2/4] x4 |[M:4/4] x8 | x8 | x8 | x8 |] %69
V:5
!mp!!ped! ([D,F,A,]2 [D,F,A,]2 [D,F,A,]2 [D,F,A,]2)!ped-up! | %1
!ped! ([C,F,A,]2 [C,F,A,]2 [C,F,A,]2 [C,F,A,]2)!ped-up! | %2
!ped! ([D,F,B,]2 [D,F,B,]2 [D,F,B,]2 [D,F,B,]2!ped-up! | %3
!ped! [D,F,B,]2 [D,F,B,]2 [D,F,B,]2 [D,F,B,]2)!ped-up! | %4
!ped! ([C,F,A,]2 [C,F,A,]2 [C,F,A,]2 [C,F,A,]2)!ped-up! | %5
!ped! ([E,A,^C]2 [E,A,C]2 [E,A,C]2 [E,A,C]2)!ped-up! | %6
!ped! ([D,F,A,]2 [D,F,A,]2 [D,F,A,]2 [D,F,A,]2)!ped-up! | %7
!ped! ([_D,F,G,]2 [D,F,G,]2 [D,F,G,]2 [D,F,G,]2!ped-up! | %8
!ped! [_D,F,G,]2 [D,F,G,]2 [D,F,G,]2 [D,F,G,]2)!ped-up! | %9
!p!!ped! ([D,F,A,]2 [D,F,A,]2 [D,F,A,]2 [D,F,A,]2)!ped-up! | %10
!ped! ([C,F,A,]2 [C,F,A,]2 [C,F,A,]2 [C,F,A,]2)!ped-up! | %11
!ped! ([D,F,B,]2 [D,F,B,]2 [D,F,B,]2 [D,F,B,]2)!ped-up! | %12
!ped! ([_D,F,G,]2 [D,F,G,]2 [D,F,G,]2 [D,F,G,]2)!ped-up! | %13
!ped! ([C,F,A,]2 [C,F,A,]2 [C,F,A,]2 [C,F,A,]2)!ped-up! | %14
!ped! ([E,A,^C]2 [E,A,C]2 [E,A,C]2 [E,A,C]2)!ped-up! | %15
!ped! ([D,F,A,]2 [D,F,A,]2 [D,F,A,]2 [D,F,A,]2)!ped-up! | %16
!ped! ([_D,F,G,]2 [D,F,G,]2 [D,F,G,]2 [D,F,G,]2!ped-up! | %17
!ped! [_D,F,G,]2 [D,F,G,]2 [D,F,G,]4)!ped-up! | %18
!f!!ped! [F,,B,,D,]2 [F,,B,,D,]2 [F,,B,,D,]2 [F,,B,,D,]2!ped-up! | %19
!ped! [G,,C,E,]2 [G,,C,E,]2 [G,,C,E,]2 [G,,C,E,]2!ped-up! | %20
!ff!!ped! [_D,F,G,]2 [D,F,G,]2 [D,F,G,]2 [D,F,G,]2!ped-up! | %21
!ped! [_D,F,G,B,_D]2 [D,F,G,B,D]2 [D,F,G,B,D]2 [D,F,G,B,D]2!ped-up! |!p! F,CF,C F,CF,C | %23
 D,,D,D,,D, D,,D,D,,D, | A,,E,A,,E, A,,E,A,,E, | B,,F,B,,F, B,,F,B,,F, |!mp! F,CF,C F,CF,C | %27
 D,,D,D,,D, D,,D,D,,D, | A,,E,A,,E, A,,E,A,,E, | B,,F,B,,F, B,,F,B,,F, | (DA,DA, DA,DA,) | %31
 (CA,CA, CA,CA,) | (DB,DB, DB,DB,) | (F_DFD FDFD) | (DA,DA, DA,DA,) | (CA,CA, CA,CA,) | %36
 (DB,DB, DB,DB,) | (F_DFD FDFD | F^G,FG, FG,FG,) |!mp! F,CF,C F,CF,C | D,,D,D,,D, D,,D,D,,D, | %41
 A,,E,A,,E, A,,E,A,,E, | B,,F,B,,F, B,,F,B,,F, |!mp! F,CF,C F,CF,C | D,,D,D,,D, D,,D,D,,D, | %45
 A,,E,A,,E, A,,E,A,,E, | B,,F,B,,F, B,,F,B,,F, |!mf! F,CF,C F,CF,C | D,,D,D,,D, D,,D,D,,D, | %49
 A,,E,A,,E, A,,E,A,,E, | B,,F,B,,F, B,,F,B,,F, |!f! F,CF,C F,CF,C | D,,D,D,,D, D,,D,D,,D, | %53
 A,,E,A,,E, A,,E,A,,E, | B,,F,B,,F, B,,F,B,,F, |!mp! (DA,DA, DA,DA,) | (CA,CA, CA,CA,) | %57
 (DB,DB, DB,DB,) | (F_DFD FDFD) |!p! (CA,CA, CA,CA,) | (^CA,CA, CA,CA,) | (DA,DA, DA,DA,) | %62
 (F_DFD FDFD) |!p! (F^G,FG, FG,FG,) |[M:2/4] z4 | %65
[M:4/4]!p!!ped! [D,F,A,]2 [D,F,A,]2 [D,F,A,]2 [D,F,A,]2!ped-up! | %66
!ped! [D,F,B,]2 [D,F,B,]2 [D,F,B,]2 [D,F,B,]2!ped-up! | %67
!ped! [D,F,A,]2 [D,F,A,]2 [D,F,A,]2 [D,F,A,]2!ped-up! | %68
!ped! [D,F,B,]2 [D,F,B,]2 [D,F,B,]4!ped-up! |] %69
V:6
 z8 | z8 | z8 | z8 | z8 | z8 | z8 | z8 | z8 | z8 | z8 | z8 | z8 | z8 | z8 | z8 | z8 | z8 | %18
!mf! F,/B,,/B,,/B,,/ F,/B,,/B,,/B,,/ F,/B,,/B,,/B,,/ F,/B,,/B,,/B,,/ | %19
 F,/B,,/B,,/B,,/ F,/B,,/B,,/B,,/ F,/B,,/B,,/B,,/ F,/B,,/B,,/B,,/ | %20
 G,/F,/_D,/D,/ G,/F,/D,/D,/ G,/F,/D,/D,/ G,/F,/D,/D,/ | z8 | %22
!p! F,,/C,/F, F,,/C,/F, F,,/C,/F, F,,/C,/F, | D,,/A,,/D, D,,/A,,/D, D,,/A,,/D, D,,/A,,/D, | %24
 A,,/E,/A, A,,/E,/A, A,,/E,/A, A,,/E,/A, | B,,/F,/B, B,,/F,/B, B,,/F,/B, B,,/F,/B, | %26
!mp! F,,/C,/F, F,,/C,/F, F,,/C,/F, F,,/C,/F, | D,,/A,,/D, D,,/A,,/D, D,,/A,,/D, D,,/A,,/D, | %28
 A,,/E,/A, A,,/E,/A, A,,/E,/A, A,,/E,/A, | B,,/F,/B, B,,/F,/B, B,,/F,/B, B,,/F,/B, | %30
 [D,,D,]2 [D,,D,]2 [D,,D,]2 [D,,D,]2 | [F,,F,]2 [F,,F,]2 [F,,F,]2 [F,,F,]2 | %32
 [B,,B,]2 [B,,B,]2 [B,,B,]2 [B,,B,]2 | [_D,,_D,]2 [D,,D,]2 [D,,D,]2 [D,,D,]2 | %34
 [D,,D,]2 [D,,D,]2 [D,,D,]2 [D,,D,]2 | [F,,F,]2 [F,,F,]2 [F,,F,]2 [F,,F,]2 | %36
 [B,,B,]2 [B,,B,]2 [B,,B,]2 [B,,B,]2 | [_D,,_D,]2 [D,,D,]2 [D,,D,]2 [D,,D,]2 | %38
 [_D,,_D,]2 [D,,D,]2 [D,,D,]2 [D,,D,]2 |!mp! F,,/C,/F, F,,/C,/F, F,,/C,/F, F,,/C,/F, | %40
 D,,/A,,/D, D,,/A,,/D, D,,/A,,/D, D,,/A,,/D, | A,,/E,/A, A,,/E,/A, A,,/E,/A, A,,/E,/A, | %42
 B,,/F,/B, B,,/F,/B, B,,/F,/B, B,,/F,/B, |!mp! F,,/C,/F, F,,/C,/F, F,,/C,/F, F,,/C,/F, | %44
 D,,/A,,/D, D,,/A,,/D, D,,/A,,/D, D,,/A,,/D, | A,,/E,/A, A,,/E,/A, A,,/E,/A, A,,/E,/A, | %46
 B,,/F,/B, B,,/F,/B, B,,/F,/B, B,,/F,/B, |!mf! F,,/C,/F, F,,/C,/F, F,,/C,/F, F,,/C,/F, | %48
 D,,/A,,/D, D,,/A,,/D, D,,/A,,/D, D,,/A,,/D, | A,,/E,/A, A,,/E,/A, A,,/E,/A, A,,/E,/A, | %50
 B,,/F,/B, B,,/F,/B, B,,/F,/B, B,,/F,/B, |!f! F,,/C,/F, F,,/C,/F, F,,/C,/F, F,,/C,/F, | %52
 D,,/A,,/D, D,,/A,,/D, D,,/A,,/D, D,,/A,,/D, | A,,/E,/A, A,,/E,/A, A,,/E,/A, A,,/E,/A, | %54
 B,,/F,/B, B,,/F,/B, B,,/F,/B, B,,/F,/B, |!p! [D,,D,]2 [D,,D,]2 [D,,D,]2 [D,,D,]2 | %56
 [F,,F,]2 [F,,F,]2 [F,,F,]2 [F,,F,]2 | [B,,B,]2 [B,,B,]2 [B,,B,]2 [B,,B,]2 | %58
 [_D,,_D,]2 [D,,D,]2 [D,,D,]2 [D,,D,]2 |!mp! [F,,F,]2 [F,,F,]2 [F,,F,]2 [F,,F,]2 | %60
 [A,,A,]2 [A,,A,]2 [A,,A,]2 [A,,A,]2 | [D,,D,]2 [D,,D,]2 [D,,D,]2 [D,,D,]2 | %62
 [_D,,_D,]2 [D,,D,]2 [D,,D,]2 [D,,D,]2 |!p! [_D,,_D,]2 [D,,D,]2 [D,,D,]2 [D,,D,]2 |[M:2/4] z4 | %65
[M:4/4] z8 | z8 | z8 | z8 |] %69

